X: 20
T:Cameronian Reel
R:Reel
Z:added by Alf 
M:4/4
L:1/8
Q:1/2=112
K:D
dB|:A2FA DAFA|GE~E2 G2dB|A2FA DAFA|GBAG FDdB|
AF~F2 AF~F2|GE~E2 G2dB|A2FA DAFA|GBAG FDD2:|
A|Bddc d2dA|(3Bcd ef gfed|(3cBA eA fAeA|cdef gfed|
faeg fdeg|faeg fdef|afge fdec|dBAG FDD:|
